;FLAVOR:Marlin
;TIME:21255
;Filament used: 30.8192m
;Layer height: 0.2
;Generated with Cura_SteamEngine 3.6.0
M140 S60
M105
M190 S60
M104 S200
M105
M109 S200
M82 ;absolute extrusion mode
; Ender 3 Custom Start G-code
G28 ; Home all axes
G92 E0 ; Reset Extruder
G1 Z2.0 F3000 ; Move Z Axis up little to prevent scratching of Heat Bed
G1 X0.1 Y20 Z0.3 F5000.0 ; Move to start position
G1 X0.1 Y200.0 Z0.3 F1500.0 E15 ; Draw the first line
G1 X0.4 Y200.0 Z0.3 F5000.0 ; Move to side a little
G1 X0.4 Y20 Z0.3 F1500.0 E30 ; Draw the second line
G92 E0 ; Reset Extruder
G1 Z2.0 F3000 ; Move Z Axis up little to prevent scratching of Heat Bed
; End of custom start GCode
G92 E0
G1 F2400 E-5
;LAYER_COUNT:331
;LAYER:0
M107
M204 S5000
M205 X30 Y30
G0 F3600 X12.222 Y66.963 Z0.2
M204 S500
M205 X20 Y20
;TYPE:SKIRT
G1 F2400 E0
G1 F1800 X13.036 Y66.911 E0.02713
G1 X75.957 Y66.91 E2.11989
G1 X76.671 Y66.95 E2.14367
G1 X77.376 Y67.069 E2.16745
G1 X78.064 Y67.267 E2.19127
G1 X78.725 Y67.54 E2.21505
G1 X79.352 Y67.884 E2.23884
G1 X79.936 Y68.297 E2.26263
G1 X80.624 Y68.93 E2.29372
G1 X81.813 Y70.197 E2.35152
G1 X85.146 Y73.653 E2.51121
G1 X89.043 Y77.275 E2.68816
G1 X93.119 Y80.657 E2.86432
G1 X97.378 Y83.801 E3.04039
G1 X101.811 Y86.7 E3.21656
G1 X106.399 Y89.344 E3.39269
G1 X110.852 Y91.6 E3.55872
G1 X111.471 Y91.958 E3.5825
G1 X112.047 Y92.384 E3.60633
G1 X112.476 Y92.774 E3.62561
G1 X112.705 Y93.002 E3.63636
G1 X113.182 Y93.534 E3.66012
G1 X113.429 Y93.862 E3.67378
G1 X115.638 Y97.011 E3.80172
G1 X118.891 Y101.217 E3.97857
G1 X122.357 Y105.211 E4.15445
G1 X127.11 Y110.059 E4.38027
G1 X127.581 Y110.597 E4.40405
G1 X127.99 Y111.184 E4.42784
G1 X128.33 Y111.813 E4.45163
G1 X128.598 Y112.476 E4.47541
G1 X128.791 Y113.165 E4.49921
G1 X128.905 Y113.871 E4.52299
G1 X128.94 Y114.54 E4.54528
G1 X128.94 Y120.457 E4.74208
G1 X128.9 Y121.171 E4.76586
G1 X128.781 Y121.876 E4.78964
G1 X128.583 Y122.564 E4.81345
G1 X128.31 Y123.225 E4.83724
G1 X128.057 Y123.7 E4.85514
G1 X124.401 Y129.919 E5.09508
G1 X122.027 Y134.627 E5.27045
G1 X119.923 Y139.455 E5.44561
G1 X118.078 Y144.448 E5.62266
G1 X116.53 Y149.499 E5.79837
G1 X115.25 Y154.705 E5.97668
G1 X114.47 Y158.691 E6.11177
G1 X114.294 Y159.384 E6.13555
G1 X114.041 Y160.053 E6.15934
G1 X113.715 Y160.69 E6.18314
G1 X113.321 Y161.286 E6.2069
G1 X112.734 Y161.968 E6.23683
G1 X112.507 Y162.197 E6.24755
G1 X111.976 Y162.676 E6.27134
G1 X111.395 Y163.092 E6.2951
G1 X110.841 Y163.407 E6.3163
G1 X106.932 Y165.375 E6.46186
G1 X102.32 Y167.993 E6.63825
G1 X97.877 Y170.856 E6.81405
G1 X93.588 Y173.978 E6.99049
G1 X89.487 Y177.333 E7.16672
G1 X85.607 Y180.892 E7.34183
G1 X80.574 Y186.126 E7.58335
G1 X80.05 Y186.613 E7.60714
G1 X79.475 Y187.039 E7.63094
G1 X78.856 Y187.398 E7.65474
G1 X78.202 Y187.685 E7.67849
G1 X77.519 Y187.898 E7.70229
G1 X76.816 Y188.033 E7.7261
G1 X75.961 Y188.09 E7.7546
G1 X13.043 Y188.09 E9.84726
G1 X12.329 Y188.05 E9.87105
G1 X11.624 Y187.931 E9.89483
G1 X10.936 Y187.733 E9.91864
G1 X10.275 Y187.46 E9.94242
G1 X9.648 Y187.116 E9.96621
G1 X9.064 Y186.703 E9.99
G1 X8.577 Y186.274 E10.01159
G1 X8.345 Y186.048 E10.02236
G1 X7.862 Y185.521 E10.04614
G1 X7.44 Y184.944 E10.06991
G1 X7.085 Y184.323 E10.0937
G1 X6.802 Y183.666 E10.1175
G1 X6.594 Y182.982 E10.14127
G1 X6.463 Y182.278 E10.16509
G1 X6.411 Y181.473 E10.19192
G1 X6.36 Y145.575 E11.38589
G1 X6.06 Y140.274 E11.56249
G1 X5.463 Y135.019 E11.7384
G1 X4.503 Y129.439 E11.92671
G1 X4.421 Y128.729 E11.95048
G1 X4.41 Y128.354 E11.96296
G1 X4.41 Y126.653 E12.01954
G1 X4.45 Y125.939 E12.04332
G1 X4.509 Y125.533 E12.05697
G1 X5.268 Y121.259 E12.20135
G1 X5.943 Y115.963 E12.37892
G1 X6.316 Y110.679 E12.5551
G1 X6.4 Y106.672 E12.6884
G1 X6.41 Y73.541 E13.79035
G1 X6.45 Y72.827 E13.81413
G1 X6.57 Y72.122 E13.83792
G1 X6.767 Y71.434 E13.86172
G1 X7.04 Y70.773 E13.8855
G1 X7.385 Y70.147 E13.90928
G1 X7.798 Y69.563 E13.93307
G1 X8.226 Y69.077 E13.95461
G1 X8.452 Y68.845 E13.96538
G1 X8.979 Y68.362 E13.98916
G1 X9.556 Y67.94 E14.01293
G1 X10.177 Y67.585 E14.03672
G1 X10.834 Y67.302 E14.06052
G1 X11.518 Y67.094 E14.0843
G1 X12.222 Y66.963 E14.10811
M204 S5000
M205 X30 Y30
G0 F3600 X12.404 Y67.344
M204 S500
M205 X20 Y20
G1 F1800 X13.036 Y67.311 E14.12916
G1 X75.957 Y67.31 E16.22192
G1 X76.648 Y67.35 E16.24494
G1 X77.33 Y67.469 E16.26797
G1 X77.994 Y67.666 E16.29101
G1 X78.631 Y67.939 E16.31406
G1 X79.232 Y68.283 E16.33709
G1 X79.79 Y68.694 E16.36014
G1 X80.332 Y69.204 E16.38489
G1 X81.49 Y70.437 E16.44115
G1 X84.878 Y73.95 E16.60348
G1 X88.77 Y77.569 E16.78024
G1 X92.872 Y80.971 E16.95749
G1 X97.156 Y84.134 E17.13461
G1 X101.585 Y87.031 E17.31063
G1 X106.22 Y89.702 E17.48856
G1 X110.672 Y91.957 E17.65454
G1 X111.27 Y92.305 E17.67755
G1 X111.825 Y92.72 E17.7006
G1 X112.193 Y93.057 E17.7172
G1 X112.422 Y93.285 E17.72795
G1 X112.884 Y93.801 E17.75098
G1 X113.101 Y94.091 E17.76303
G1 X115.316 Y97.249 E17.89133
G1 X118.586 Y101.477 E18.0691
G1 X122.06 Y105.48 E18.24539
G1 X126.824 Y110.339 E18.47172
G1 X127.28 Y110.861 E18.49477
G1 X127.672 Y111.432 E18.51781
G1 X127.996 Y112.044 E18.54084
G1 X128.247 Y112.689 E18.56386
G1 X128.423 Y113.359 E18.5869
G1 X128.52 Y114.045 E18.60994
G1 X128.54 Y114.54 E18.62642
G1 X128.54 Y120.457 E18.82322
G1 X128.5 Y121.148 E18.84624
G1 X128.381 Y121.831 E18.8693
G1 X128.183 Y122.494 E18.89231
G1 X127.911 Y123.131 E18.91535
G1 X127.712 Y123.498 E18.92924
G1 X124.05 Y129.728 E19.16959
G1 X121.667 Y134.451 E19.34554
G1 X119.549 Y139.314 E19.52196
G1 X117.701 Y144.313 E19.69923
G1 X116.139 Y149.412 E19.8766
G1 X114.859 Y154.614 E20.05478
G1 X114.077 Y158.614 E20.19034
G1 X113.905 Y159.285 E20.21338
G1 X113.657 Y159.931 E20.23639
G1 X113.336 Y160.545 E20.25944
G1 X112.947 Y161.117 E20.28244
G1 X112.45 Y161.686 E20.30757
G1 X112.223 Y161.915 E20.3183
G1 X111.708 Y162.378 E20.34133
G1 X111.143 Y162.778 E20.36436
G1 X110.661 Y163.05 E20.38276
G1 X106.758 Y165.016 E20.52812
G1 X102.098 Y167.659 E20.7063
G1 X97.65 Y170.526 E20.88231
G1 X93.344 Y173.661 E21.05947
G1 X89.237 Y177.022 E21.23598
G1 X85.323 Y180.611 E21.4126
G1 X80.286 Y185.849 E21.6543
G1 X79.778 Y186.32 E21.67734
G1 X79.219 Y186.729 E21.70038
G1 X78.616 Y187.07 E21.72342
G1 X77.979 Y187.341 E21.74644
G1 X77.314 Y187.535 E21.76948
G1 X76.632 Y187.652 E21.7925
G1 X75.961 Y187.69 E21.81485
G1 X13.043 Y187.69 E23.90751
G1 X12.352 Y187.65 E23.93053
G1 X11.669 Y187.531 E23.95359
G1 X11.006 Y187.333 E23.97661
G1 X10.369 Y187.061 E23.99964
G1 X9.768 Y186.717 E24.02268
G1 X9.21 Y186.306 E24.04573
G1 X8.856 Y185.988 E24.06155
G1 X8.624 Y185.762 E24.07233
G1 X8.157 Y185.251 E24.09535
G1 X7.752 Y184.689 E24.11839
G1 X7.414 Y184.085 E24.14141
G1 X7.148 Y183.445 E24.16446
G1 X6.957 Y182.78 E24.18747
G1 X6.844 Y182.096 E24.21053
G1 X6.811 Y181.472 E24.23132
G1 X6.76 Y145.551 E25.42606
G1 X6.46 Y140.259 E25.60235
G1 X5.859 Y134.96 E25.77973
G1 X4.897 Y129.372 E25.96832
G1 X4.81 Y128.354 E26.0023
G1 X4.81 Y126.653 E26.05888
G1 X4.85 Y125.962 E26.0819
G1 X4.903 Y125.603 E26.09397
G1 X5.664 Y121.318 E26.23872
G1 X6.341 Y116.007 E26.41679
G1 X6.716 Y110.695 E26.59391
G1 X6.8 Y106.68 E26.72748
G1 X6.81 Y73.541 E27.82968
G1 X6.85 Y72.85 E27.8527
G1 X6.97 Y72.168 E27.87574
G1 X7.167 Y71.504 E27.89877
G1 X7.44 Y70.867 E27.92182
G1 X7.784 Y70.266 E27.94486
G1 X8.195 Y69.709 E27.96788
G1 X8.512 Y69.356 E27.98366
G1 X8.738 Y69.124 E27.99443
G1 X9.249 Y68.657 E28.01746
G1 X9.811 Y68.252 E28.0405
G1 X10.415 Y67.914 E28.06352
G1 X11.055 Y67.648 E28.08657
G1 X11.72 Y67.457 E28.10958
G1 X12.404 Y67.344 E28.13264
M204 S5000
M205 X30 Y30
G0 F3600 X12.581 Y67.729
M204 S500
M205 X20 Y20
G1 F1800 X13.036 Y67.711 E28.14778
G1 X75.957 Y67.71 E30.24055
G1 X76.625 Y67.75 E30.2628
G1 X77.283 Y67.869 E30.28504
G1 X77.922 Y68.066 E30.30728
G1 X78.534 Y68.338 E30.32956
G1 X79.108 Y68.681 E30.3518
G1 X79.638 Y69.09 E30.37407
G1 X80.04 Y69.478 E30.39265
G1 X81.176 Y70.689 E30.44787
G1 X84.591 Y74.229 E30.61147
G1 X88.515 Y77.878 E30.78969
G1 X92.624 Y81.285 E30.96723
G1 X96.913 Y84.452 E31.14456
G1 X101.393 Y87.382 E31.3226
G1 X106.025 Y90.052 E31.50042
G1 X110.491 Y92.314 E31.66693
G1 X111.069 Y92.651 E31.68918
G1 X111.602 Y93.055 E31.71143
G1 X111.911 Y93.341 E31.72543
G1 X112.14 Y93.569 E31.73618
G1 X112.774 Y94.321 E31.76889
G1 X114.995 Y97.487 E31.89752
G1 X118.276 Y101.73 E32.07592
G1 X121.77 Y105.757 E32.25324
G1 X126.538 Y110.619 E32.47973
G1 X126.978 Y111.124 E32.50201
G1 X127.353 Y111.678 E32.52426
G1 X127.66 Y112.272 E32.5465
G1 X127.894 Y112.899 E32.56876
G1 X128.052 Y113.549 E32.59101
G1 X128.14 Y114.54 E32.6241
G1 X128.14 Y120.457 E32.8209
G1 X128.1 Y121.125 E32.84316
G1 X127.981 Y121.783 E32.8654
G1 X127.784 Y122.423 E32.88767
G1 X127.368 Y123.295 E32.9198
G1 X123.696 Y129.542 E33.16082
G1 X121.304 Y134.284 E33.33747
G1 X119.178 Y139.164 E33.51451
G1 X117.319 Y144.194 E33.69287
G1 X115.758 Y149.288 E33.87007
G1 X114.469 Y154.529 E34.04958
G1 X113.685 Y158.537 E34.18542
G1 X113.517 Y159.185 E34.20768
G1 X113.274 Y159.808 E34.22992
G1 X112.958 Y160.398 E34.25218
G1 X112.574 Y160.945 E34.27441
G1 X112.166 Y161.404 E34.29484
G1 X111.939 Y161.633 E34.30556
G1 X111.441 Y162.08 E34.32782
G1 X110.892 Y162.463 E34.35008
G1 X110.481 Y162.693 E34.36575
G1 X106.568 Y164.664 E34.51147
G1 X101.898 Y167.313 E34.69005
G1 X97.413 Y170.204 E34.86752
G1 X93.101 Y173.343 E35.04492
G1 X88.968 Y176.724 E35.22252
G1 X85.046 Y180.321 E35.39952
G1 X79.997 Y185.572 E35.64181
G1 X79.506 Y186.025 E35.66403
G1 X78.963 Y186.417 E35.6863
G1 X78.378 Y186.741 E35.70854
G1 X77.759 Y186.994 E35.73078
G1 X77.113 Y187.17 E35.75305
G1 X76.451 Y187.268 E35.77531
G1 X75.961 Y187.29 E35.79162
G1 X13.043 Y187.29 E37.88429
G1 X12.375 Y187.25 E37.90654
G1 X11.717 Y187.131 E37.92878
G1 X11.077 Y186.934 E37.95106
G1 X10.466 Y186.662 E37.9733
G1 X9.892 Y186.319 E37.99554
G1 X9.135 Y185.701 E38.02804
G1 X8.903 Y185.475 E38.03882
G1 X8.453 Y184.981 E38.06104
G1 X8.065 Y184.436 E38.08329
G1 X7.744 Y183.849 E38.10554
G1 X7.496 Y183.227 E38.12782
G1 X7.324 Y182.581 E38.15005
G1 X7.229 Y181.919 E38.17229
G1 X7.211 Y181.472 E38.18717
G1 X7.16 Y145.547 E39.38205
G1 X6.858 Y140.209 E39.55987
G1 X6.257 Y134.916 E39.73705
G1 X5.291 Y129.304 E39.92645
G1 X5.21 Y128.354 E39.95816
G1 X5.21 Y126.653 E40.01474
G1 X5.296 Y125.673 E40.04746
G1 X6.063 Y121.359 E40.19319
G1 X6.739 Y116.05 E40.3712
G1 X7.116 Y110.711 E40.54921
G1 X7.2 Y106.689 E40.68302
G1 X7.21 Y73.541 E41.78552
G1 X7.25 Y72.873 E41.80778
G1 X7.37 Y72.215 E41.83003
G1 X7.567 Y71.576 E41.85227
G1 X7.839 Y70.965 E41.87451
G1 X8.182 Y70.39 E41.89678
G1 X8.799 Y69.635 E41.92921
G1 X9.025 Y69.403 E41.93998
G1 X9.519 Y68.953 E41.96221
G1 X10.064 Y68.565 E41.98446
G1 X10.651 Y68.244 E42.00671
G1 X11.273 Y67.996 E42.02898
G1 X11.919 Y67.824 E42.05122
G1 X12.581 Y67.729 E42.07346
M204 S5000
M205 X30 Y30
G0 F3600 X12.114 Y68.193
M204 S500
M205 X20 Y20
G1 F1800 X13.036 Y68.111 E42.10425
G1 X75.957 Y68.11 E44.19701
G1 X76.6 Y68.15 E44.21844
G1 X77.234 Y68.269 E44.23989
G1 X77.848 Y68.466 E44.26134
G1 X78.433 Y68.737 E44.28278
G1 X78.979 Y69.079 E44.30421
G1 X79.48 Y69.485 E44.32566
G1 X79.749 Y69.752 E44.33826
G1 X80.889 Y70.967 E44.39368
G1 X84.314 Y74.517 E44.55775
G1 X88.252 Y78.179 E44.7366
G1 X92.384 Y81.607 E44.91517
G1 X96.682 Y84.779 E45.09284
G1 X101.187 Y87.726 E45.27189
G1 X105.816 Y90.393 E45.44958
G1 X110.31 Y92.67 E45.61714
G1 X110.866 Y92.997 E45.63859
G1 X111.377 Y93.389 E45.66001
G1 X111.629 Y93.624 E45.67147
G1 X111.858 Y93.852 E45.68222
G1 X112.446 Y94.551 E45.7126
G1 X114.673 Y97.725 E45.84156
G1 X117.965 Y101.983 E46.02058
G1 X121.465 Y106.016 E46.19818
G1 X126.253 Y110.899 E46.42564
G1 X126.675 Y111.387 E46.4471
G1 X127.033 Y111.923 E46.46854
G1 X127.323 Y112.499 E46.48999
G1 X127.538 Y113.106 E46.5114
G1 X127.677 Y113.736 E46.53286
G1 X127.74 Y114.54 E46.55969
G1 X127.74 Y120.457 E46.75649
G1 X127.7 Y121.1 E46.77791
G1 X127.581 Y121.734 E46.79937
G1 X127.384 Y122.348 E46.82082
G1 X127.023 Y123.092 E46.84832
G1 X123.348 Y129.344 E47.08953
G1 X120.94 Y134.118 E47.26737
G1 X118.812 Y139.002 E47.44456
G1 X116.941 Y144.065 E47.62408
G1 X115.367 Y149.202 E47.80278
G1 X114.079 Y154.438 E47.98212
G1 X113.292 Y158.46 E48.11843
G1 X113.13 Y159.084 E48.13988
G1 X112.891 Y159.683 E48.16133
G1 X112.58 Y160.248 E48.18278
G1 X112.202 Y160.77 E48.20421
G1 X111.882 Y161.123 E48.22006
G1 X111.655 Y161.352 E48.23078
G1 X111.174 Y161.781 E48.25222
G1 X110.643 Y162.147 E48.27367
G1 X110.301 Y162.335 E48.28665
G1 X106.384 Y164.307 E48.43251
G1 X101.697 Y166.967 E48.61175
G1 X97.186 Y169.875 E48.79026
G1 X92.866 Y173.019 E48.96797
G1 X88.699 Y176.428 E49.14704
G1 X84.762 Y180.039 E49.32472
G1 X79.709 Y185.294 E49.5672
G1 X79.234 Y185.731 E49.58866
G1 X78.709 Y186.104 E49.61008
G1 X78.142 Y186.411 E49.63153
G1 X77.541 Y186.644 E49.65297
G1 X76.916 Y186.802 E49.67441
G1 X75.961 Y186.89 E49.70631
G1 X13.043 Y186.89 E51.79897
G1 X12.4 Y186.85 E51.8204
G1 X11.766 Y186.731 E51.84185
G1 X11.152 Y186.534 E51.8633
G1 X10.567 Y186.263 E51.88474
G1 X10.02 Y185.921 E51.9062
G1 X9.415 Y185.415 E51.93243
G1 X9.183 Y185.189 E51.9432
G1 X8.75 Y184.711 E51.96465
G1 X8.379 Y184.184 E51.98609
G1 X8.076 Y183.614 E52.00756
G1 X7.847 Y183.012 E52.02898
G1 X7.693 Y182.386 E52.05042
G1 X7.611 Y181.471 E52.08098
G1 X7.56 Y145.542 E53.27598
G1 X7.256 Y140.177 E53.45471
G1 X6.652 Y134.855 E53.63286
G1 X5.685 Y129.236 E53.82249
G1 X5.61 Y128.354 E53.85194
G1 X5.61 Y126.653 E53.90851
G1 X5.69 Y125.743 E53.93889
G1 X6.459 Y121.418 E54.085
G1 X7.137 Y116.094 E54.26351
G1 X7.516 Y110.727 E54.44246
G1 X7.6 Y106.697 E54.57653
G1 X7.61 Y73.541 E55.6793
G1 X7.65 Y72.898 E55.70073
G1 X7.77 Y72.265 E55.72216
G1 X7.967 Y71.651 E55.7436
G1 X8.238 Y71.066 E55.76505
G1 X8.58 Y70.519 E55.7865
G1 X9.085 Y69.915 E55.81269
G1 X9.311 Y69.683 E55.82346
G1 X9.789 Y69.25 E55.84491
G1 X10.316 Y68.879 E55.86635
G1 X10.886 Y68.576 E55.88782
G1 X11.488 Y68.347 E55.90924
G1 X12.114 Y68.193 E55.93068
M204 S5000
M205 X30 Y30
G0 F3600 X13.116 Y73.5
M204 S500
M205 X20 Y20
;TYPE:SUPPORT
G1 F1800 X75.884 Y73.5 E58.01836
G1 X76 Y73.616 E58.02381
G1 X76 Y97.101 E58.80493
G1 X76.399 Y97.5 E58.82369
G1 X107.884 Y97.5 E59.87089
G1 X108 Y97.616 E59.87634
G1 X108 Y157.384 E61.86424
G1 X107.884 Y157.5 E61.86969
G1 X76.399 Y157.5 E62.91689
G1 X76 Y157.899 E62.93566
G1 X76 Y181.384 E63.71677
G1 X75.884 Y181.5 E63.72223
G1 X13.116 Y181.5 E65.8099
G1 X13 Y181.384 E65.81536
G1 X13 Y139.4 E67.21175
G1 X17.256 Y139.4 E67.3533
G1 X17.9 Y138.756 E67.3836
G1 X17.9 Y116.244 E68.13235
G1 X17.256 Y115.6 E68.16264
G1 X13 Y115.6 E68.30419
G1 X13 Y73.616 E69.70059
G1 X13.116 Y73.5 E69.70604
M204 S5000
M205 X30 Y30
G0 F3600 X13.335 Y73.66
M204 S500
M205 X20 Y20
G1 F1800 X13.335 Y115.44 E71.09565
M204 S5000
M205 X30 Y30
G0 F3600 X13.159 Y114.681
M204 S500
M205 X20 Y20
G1 F1800 X107.84 Y114.681 E74.24476
M204 S5000
M205 X30 Y30
G0 F3600 X107.84 Y112.014
M204 S500
M205 X20 Y20
G1 F1800 X13.159 Y112.014 E77.39386
M204 S5000
M205 X30 Y30
G0 F3600 X13.159 Y109.347
M204 S500
M205 X20 Y20
G1 F1800 X107.84 Y109.347 E80.54296
M204 S5000
M205 X30 Y30
G0 F3600 X107.84 Y106.68
M204 S500
M205 X20 Y20
G1 F1800 X13.159 Y106.68 E83.69206
M204 S5000
M205 X30 Y30
G0 F3600 X13.159 Y104.013
M204 S500
M205 X20 Y20
G1 F1800 X107.84 Y104.013 E86.84117
M204 S5000
M205 X30 Y30
G0 F3600 X107.84 Y101.346
M204 S500
M205 X20 Y20
G1 F1800 X13.159 Y101.346 E89.99027
M204 S5000
M205 X30 Y30
G0 F3600 X13.159 Y98.679
M204 S500
M205 X20 Y20
G1 F1800 X107.84 Y98.679 E93.13937
M204 S5000
M205 X30 Y30
G0 F3600 X106.68 Y97.66
M204 S500
M205 X20 Y20
G1 F1800 X106.68 Y157.34 E95.12434
M204 S5000
M205 X30 Y30
G0 F3600 X104.013 Y157.34
M204 S500
M205 X20 Y20
G1 F1800 X104.013 Y97.66 E97.1093
M204 S5000
M205 X30 Y30
G0 F3600 X101.346 Y97.66
M204 S500
M205 X20 Y20
G1 F1800 X101.346 Y157.34 E99.09427
M204 S5000
M205 X30 Y30
G0 F3600 X98.679 Y157.34
M204 S500
M205 X20 Y20
G1 F1800 X98.679 Y97.66 E101.07923
M204 S5000
M205 X30 Y30
G0 F3600 X96.012 Y97.66
M204 S500
M205 X20 Y20
G1 F1800 X96.012 Y157.34 E103.0642
M204 S5000
M205 X30 Y30
G0 F3600 X93.345 Y157.34
M204 S500
M205 X20 Y20
G1 F1800 X93.345 Y97.66 E105.04916
M204 S5000
